X:186 
T:Scully Casey's #1*  
B:CRE3.016 (gan ainm)
F:file ID: cre.3/186scul_c_J1
R:jig
Q:160
M:6/8
L:1/8
K:Am
B|cdc BAG|EGG EAB|cBc dcd|ega ged|
cdc BAG|EGG EAB|cec dBG|BAA A2:|
B|cBc dcd|ega ged|eaa aga|bag a2g|
eaa c'aa|aba ged|c3 dBG|BAA A2:|

%%%

